svg/fluentui-system-icons/ic_fluent_mail_read_multiple_16_filled.svg

<svg width="16" height="16" viewBox="0 0 16 16" fill="none" xmlns="http://www.w3.org/2000/svg">
<path d="M7.23943 1.06105C7.09019 0.97965 6.90981 0.97965 6.76057 1.06105L1.69952 3.82163C1.49845 3.9313 1.33279 4.08811 1.21325 4.27405L7 7.43046L12.7867 4.27405C12.6672 4.08811 12.5016 3.9313 12.3005 3.82163L7.23943 1.06105ZM1 10V5.29682L6.76057 8.43895C6.90981 8.52035 7.09019 8.52035 7.23943 8.43895L13 5.29682V10C13 11.1046 12.1046 12 11 12H3C1.89543 12 1 11.1046 1 10ZM3.26758 13C3.61339 13.5978 4.25973 14 5.00001 14H11C13.2091 14 15 12.2092 15 10V6.00001C15 5.25973 14.5978 4.61339 14 4.26758V10C14 11.6569 12.6569 13 11 13H3.26758Z" fill="#212121"/>
</svg>

<svg xmlns="http://www.w3.org/2000/svg" width="16" height="16"><path d="M7.24 1.061a.5.5 0 0 0-.48 0L1.7 3.821c-.202.11-.367.267-.487.453L7 7.43l5.787-3.156a1.34 1.34 0 0 0-.487-.452L7.24 1.06ZM1 10V5.297l5.76 3.142a.5.5 0 0 0 .48 0L13 5.297V10a2 2 0 0 1-2 2H3a2 2 0 0 1-2-2Zm2.268 3A2 2 0 0 0 5 14h6a4 4 0 0 0 4-4V6a2 2 0 0 0-1-1.732V10a3 3 0 0 1-3 3H3.268Z"/></svg>
